X: 1606
T: Rast Taksim
C: Tanburî Cemil Bey
O: Turkey
F: http://compmusic.upf.edu/node/140
N: rast--taksim--serbest----tanburi_cemil_bey
N: makam= rast
N: form= taksim
N: usul= serbest = 0/1
M: 0/1
L: 1/16
K: C _1/4B ^f  
Q: 1/4=72
%%MIDI tuningsystem comma53
c4 B4 A4 G4  | G A3 A B3 B A G2 G2 c2  | \
w:   |   | 
B4 B2 A4 A2 B4  | B2 A4 G G F2 E E F2 D2  | 
w:   |   | 
D E3 F2 G2 A B4 A G3 G2 G2 G F G8 G8 G8 G8 G16 G A B c c B A G8 A B c d e e d d d c  | 
w:   | 
B B A G4 G3 G g3 g =f3 f e3 e d3 d c3 c B3 B A3/2 B/ A B c4 e2 c B B  | 
w:   | 
A G2 A4 G4 B4 A4 c4 B4 d4 c4 e4 d c B A B c B A B  | \
w:   | 
c c B A4 z4 A c B A G  | 
w:   | 
G F E4 F2 D4 c B A G  | G A G F G4 G4 G4  | \
w:   |   | 
G4 g4 =f4 e4  | d4 e =f e d d d d c B A B c  | 
w:   |   | 
d e =f e d e f g f e d2 e2 e d  | \
w:   | 
c2 c d d8 d8 d8 d8 z8 d c d e  | 
w:   | 
e d d d d c d4 z4 d c  | d e e d d d d c d4 z4  | \
w:   |   | 
d e =f e d e f g a g f e d z d e  | 
w:   | 
=f g f e d c2 c d e f e d c B2  | \
w:   | 
B2 c2 d2 e2 f2 e d2 e f g  | 
w:   | 
a g _b a g f e d e f g f e d e d  | \
w:   | 
c B d c B B A B c d c B A G4 e e d2 d d d c d8 g2 f2 g2 a2 g2 =f2 e2 e4 d4 e2 f2 e2 f2 g2 e2 f2 d2 e2 c2 c4 d2 e2 d2 g2 f2 e2 d2 c2 B4 z4 B4 d2 c4 z4 c4 e2 d4 z4 d3 c B A B8 A2 A2 B2 c2 d3 c B A G  | 
w:   | 
A G2 e d d3 c (3B^AB A c B8 B8 B8 B16 g12 =f8 e6 e2 d2 c2 A2 c c d3 d8 d8 d8 z4 z4 c c d2  | 
w:   | 
e d e =f g f e d d4 c2 B4 d2 c16 z4 z4 d G A B  | \
w:   | 
c d e =f e d c B d/ z/ c16 B c B c B c d2 c2 d3 c B B A A2 z4  | 
w:   | 
G A B c d c B A c B8 z4 B2 B c c B A2 A G c4 B8 z G A B c  | 
w:   | 
d c B A c2 B A8 A3 A d4 d2 c2 B2 A2 G4 g g g2 d'2 c'4 b2 g4 G3 G c3 B3 A G2  | 
w:   | 
g3 g c'3 b3 a g2 G2 A2 B2 c2 d2 c2 B2 A2 G4 g2 a2 b2 c'2 d'2 c'2 b2 a2 g2 z4 G4 A G c4 d/ e/ d/ c/ B2 A2 c3/2 B/ A G B3/2 A/ G F G2 A4 G2 A3 G F E D2 D4 z4 D3 D E3 E F3 F G3 G A3 G4 B3 A G G G F G8 G8 G8 g4 A4 B4 c4 d4 e4 f4 g4 g =f3 f e3 e d3 d c3 c B3 B A3 A2 G2 z G A B c B  | 
w:   | 
A8 z A B c d c B8 z c c d e d c3 B  | \
w:   | 
c3 d c3 e d8  | 
w:   | 
d8 d8  | z4 z D G A B c d c e d8 G G A B c d c e d8 D E F G F A G16 d e f g f  | 
w:   |   | 
a g4 g g a b c' b a a g g f  | f e e d a2 a g3/2 g =f3 e2 d2 c2 B2 A2 B2 c2 d4 c2 B3/2 A/ G e2 g2 e d c B B3/2 A/ G2 A2 B A G G F E F G F3/2 E/ D2 B3 A G2 G F G8 z4 z4 |
w:   |   | 


